X: 1
T:Mazurca di Valle Borbera
C:La Ciapa Rusa: ten .. 3
N:
M:3/4
L:1/8
K:G
GA Bc de|d2 d2-de|d2d2c2|c2B4|\
GB de dc|1 B2A4|AB cd cB|A2G4:|2 B2 A2 (3ABc|\
d3c B/c/B/A/|G2G2 z2||
|:dB GB GB|dB GB GB|cA FA FA|cA FA FA|\
dB GB GB|dB GB GB|e6|(3ded (3cdc B/c/B/A/|G2G2z2:|
